X: 2
T: Missa L'homme arm\'e / Gloria
N: Derived from Tin1001b-Missa_Lhomme_arme-Gloria.krn
C: Johannes Tinctoris
%%abc-version 2.0
%%abcx-abcm2ps-target-version 5.9.1 (29 Sep 2008)
%%abc-creator hum2abc beta
%%abcx-conversion-date 2019/02/17 07:34:55
%%abc-edited-by Jesse Rodin
%%abc-edited-by Complete Works (Melin)
%%abcx-initial-encoding-date 2014/06/10/
%%humdrum-veritas 425252866
%%humdrum-veritas-data 841550469
%%linebreak <none>
%%barnumbers 0
L: 1/4
M: 3/1
Q: 1/2=120
%%staves [1 2 3 4]
V: 1 clef=treble
V: 2 clef=treble-8
V: 3 clef=treble-8
V: 4 clef=bass
K: F
[V:1] z4z2G4G2 | 
[V:2] G4G2G3A/B/c2- | 
[V:3] z12 | 
[V:4] z12 | 
[V:1] G3A/B/c3B2A/G/A2- | 
[V:2] cB2A/G/A3G2F/E/F2 | 
[V:3] z12 | 
[V:4] z12 | 
[V:1] AG2F/E/F2G3^FFE | 
[V:2] c2BA/G/A2B2A4 | 
[V:3] z12 | 
[V:4] z12 | 
[V:1] G4z2D2D2D2 | 
[V:2] G12 | 
[V:3] z12 | 
[V:4] z12 | 
[V:1] G,4z2G,2B,3C | 
[V:2] z2d2d2d2G4 | 
[V:3] z12 | 
[V:4] z12 | 
[V:1] D8B,3A, | 
[V:2] z2G2B3cd3e/f/ | 
[V:3] z12 | 
[V:4] z12 | 
[V:1] B,2C3B,G,2A,4 | 
[V:2] g3fedg3^f/g/^fe | 
[V:3] z12 | 
[V:4] z12 | 
[V:1] G,8z4 | 
[V:2] g4z2d2e3/f/ed/c/ | 
[V:3] z12 | 
[V:4] G,,2C,3B,,/A,,/B,,2C,3/D,/E,F, | 
[V:1] z12 | 
[V:2] B2d3cc3=B/A/=B2 | 
[V:3] z12 | 
[V:4] G,4F,2E,2D,4 | 
[V:1] z4D4G4- | 
[V:2] c4B2d4c2- | 
[V:3] G8G4 | 
[V:4] C,4z2G,,4C,2- | 
[V:1] G2A3GE3F/G/A2 | 
[V:2] cBAGABc2A4 | 
[V:3] c8c4 | 
[V:4] C,D,/E,/F,3G,A,3G,F,E,/F,/ | 
[V:1] D2G2FGA3G^FE/F/ | 
[V:2] G2d3ef3edc | 
[V:3] B4A8 | 
[V:4] G,4D,8 | 
[V:1] G4z2D2_E3D/C/ | 
[V:2] B2_e3d/c/d2c4 | 
[V:3] G12- | 
[V:4] _E,2C,3B,,/A,,/B,,2C,3B,,/A,,/ | 
[V:1] B,2B,2C3B,/A,/G,2D2 | 
[V:2] z2d2_e3d/c/B2B2 | 
[V:3] G12 | 
[V:4] G,,4C,4z4 | 
[V:1] E3/F/G3AGF/E/D2F2- | 
[V:2] c3B/A/G4z2D2 | 
[V:3] z12 | 
[V:4] z2C,2_E,3D,/C,/B,,2B,,2 | 
[V:1] FE2D/C/B,G,A,3G,/F,/G,2 | 
[V:2] E3/F/G3BAd2ccB | 
[V:3] z12 | 
[V:4] C,3B,,/A,,/G,,2D,2_E,4 | 
[V:1] A,2z2F8 | 
[V:2] d3c/B/A8 | 
[V:3] z4d4d4 | 
[V:4] D,12 | 
[V:1] G3AB8 | 
[V:2] z2G2g3f/e/d4 | 
[V:3] G12 | 
[V:4] _E,2C,2G,,8 | 
[V:1] c4B2A3GFE | 
[V:2] c4z2F3GA2 | 
[V:3] z4d4d4 | 
[V:4] A,,4G,,2D,3E,F,2 | 
[V:1] D2A3Bc3BG2- | 
[V:2] B2A2A3Gc2e2 | 
[V:3] d4c8 | 
[V:4] G,2D,2F,3E,C,3B,, | 
[V:1] GFG2A2^F3GAF | 
[V:2] d3cd4z4 | 
[V:3] B4A8 | 
[V:4] G,,4D,3C,D,4 | 
[V:1] G4z4D4- | 
[V:2] z4d6g2- | 
[V:3] G12- | 
[V:4] G,,8G,,3A,, | 
[V:1] D2G3FEDE4 | 
[V:2] gfede4c4 | 
[V:3] G12 | 
[V:4] B,,2C,4C,3D,E,F, | 
[V:1] D4F4E4 | 
[V:2] B4A2d4c2 | 
[V:3] z12 | 
[V:4] G,4F,2D,2A,4 | 
[V:1] D6C3B,A,G, | 
[V:2] d2B4c2A4 | 
[V:3] z12 | 
[V:4] B,2G,4A,2F,3E, | 
[V:1] B,4z2G,3A,B,C | 
[V:2] z2G3ABcd3e/f/ | 
[V:3] z12 | 
[V:4] G,2D3CB,A,B,2G,2 | 
[V:1] D3E/F/G2D3CB,2 | 
[V:2] g2d3cBAB2d2- | 
[V:3] G8G4 | 
[V:4] z2G,,4G,,3A,,B,,C, | 
[V:1] A,3B,C2D2G,2C2 | 
[V:2] dcA2z4z2G2- | 
[V:3] F4E2D2E4 | 
[V:4] D,3C,A,,2B,,2C,4 | 
[V:1] DCB,A,B,4C4 | 
[V:2] G2d3cd2e4 | 
[V:3] D2G4G2D4- | 
[V:4] G,,8G,4 | 
[V:1] z2E3DC4=B,2 | 
[V:2] c2g3fe2d4 | 
[V:3] D8z4 | 
[V:4] G,12 | 
[V:1] C2G3FE2D4 | 
[V:2] c2e3dc4=B2 | 
[V:3] G12 | 
[V:4] C,8G,,4 | 
[V:1] C3DEFG4c2- | 
[V:2] c3/d/efg2e2c4 | 
[V:3] C12 | 
[V:4] z2G,2E,2C,G,2C3/B,/A, | 
[V:1] c2B2AGG4F2 | 
[V:2] d4c2B2A3B | 
[V:3] z12 | 
[V:4] G,4z2G,2D,4 | 
[V:1] E2D4G4F2 | 
[V:2] c2B2G4A4 | 
[V:3] G3AB2c2d4 | 
[V:4] C,2G,3F,E,2D,4 | 
[V:1] G4z2D4E2- | 
[V:2] G2c4B2G4 | 
[V:3] B2_e4dcB2G2 | 
[V:4] _E,2C,3B,,G,,4C,2- | 
[V:1] E2D3CB,A,B,4 | 
[V:2] c2d2B3cd4 | 
[V:3] G4z2G2G2G2 | 
[V:4] C,2B,,2G,,8 | 
[V:1] A,3B,A,2D3^CC=B, | 
[V:2] z4z4e4 | 
[V:3] F4z2A2A2A2 | 
[V:4] z12 | 
[V:1] D3C/B,/A,2B,2A,4 | 
[V:2] f8f4 | 
[V:3] D4z2d4c2 | 
[V:4] z12 | 
[V:1] G,8z4 | 
[V:2] g8d4 | 
[V:3] d4d2d2B4 | 
[V:4] z12 | 
[V:1] G2G2ABc3=B=BA | 
[V:2] e2g2f2e2d4 | 
[V:3] G4z4z4 | 
[V:4] z12 | 
[V:1] c4z2B3A/G/B2 | 
[V:2] z2c3BG2g3f/e/ | 
[V:3] z12 | 
[V:4] z12 | 
[V:1] A3G/F/A2G2FD2E | 
[V:2] f2d3c/d/_e2d2Bc | 
[V:3] z12 | 
[V:4] z12 | 
[V:1] F3D2B,B,3B,DE | 
[V:2] d2z2f3d2BB2 | 
[V:3] z12 | 
[V:4] z12 | 
[V:1] F3FGAB3A/B/AG | 
[V:2] d3/e/fde2d2c4 | 
[V:3] z12 | 
[V:4] z12 | 
[V:1] B4z2G3F/G/A2- | 
[V:2] z2B2G2cded/e/f2- | 
[V:3] z12 | 
[V:4] z12 | 
[V:1] AG/F/E2D3/E/FG2G,3/A,/B, | 
[V:2] fe/d/c2d3/c/AG3/A/B/c/d2 | 
[V:3] z12 | 
[V:4] z12 | 
[V:1] =C3D3/C/B,A,2G,G2A- | 
[V:2] ze2f3/e/g2fg2ef- | 
[V:3] z12 | 
[V:4] z12 | 
[V:1] A/G/FE2D2G3^FFE | 
[V:2] f/e/d2cd2Bc3/B/A/G/A2 | 
[V:3] z12 | 
[V:4] z12 | 
[V:1] G4z2D2E2G2- | 
[V:2] G4z4z4 | 
[V:3] G8G4 | 
[V:4] G,,8C,4 | 
[V:1] GFEDE4E4 | 
[V:2] z4g8 | 
[V:3] c8c4 | 
[V:4] C,6C,3D,E,F, | 
[V:1] D8z2A2 | 
[V:2] g4f4f4 | 
[V:3] B4A3Gd2d2 | 
[V:4] G,4D,8 | 
[V:1] B4G4z2G2- | 
[V:2] g2g3fe2d4 | 
[V:3] G8z2d2- | 
[V:4] z2G,,2C,4B,,2G,,2- | 
[V:1] GFD2G3FE2E2 | 
[V:2] z12 | 
[V:3] d2d2d2c4c2 | 
[V:4] G,,A,,B,,2G,,2C,3D,E,F, | 
[V:1] D3EF2E3DD2- | 
[V:2] z12 | 
[V:3] B4A2G2A4 | 
[V:4] G,3F,D,2G,4F,2 | 
[V:1] D2C2D2B,3A,G,2 | 
[V:2] z4z4g4 | 
[V:3] G4z4z4 | 
[V:4] E,4D,2G,3F,E,D, | 
[V:1] B,4A,8 | 
[V:2] g4f4f4 | 
[V:3] d4d4d4 | 
[V:4] G,4D,8 | 
[V:1] z2G,2B,2C3/B,/D2G2- | 
[V:2] g2g3fe2d4 | 
[V:3] G4G3AB3c | 
[V:4] _E,2E,3D,C,2B,,2G,,2- | 
[V:1] GFD3EFGA2D2 | 
[V:2] g4a6g2 | 
[V:3] d4d4c2B2 | 
[V:4] G,,2G,2D,3E,F,2G,2 | 
[V:1] A2B2G2c3BAG | 
[V:2] f4e8 | 
[V:3] d4c3BAGc2 | 
[V:4] D,2B,,2C,B,,A,,G,,C,3B,, | 
[V:1] B2G4^F2F3E/F/ | 
[V:2] d12 | 
[V:3] B6AGA4 | 
[V:4] G,,4D,8 | 
[V:1] G12 ||  
[V:2] d12 ||  
[V:3] G12 ||  
[V:4] G,,12 ||  
[V:1]  [K:F] [K:clef=treble][M:2/1]G8- | 
[V:2]  [K:F] [K:clef=treble-8][M:2/1]z8 | 
[V:3]  [K:F] [K:clef=treble-8][M:2/1]G8 | 
[V:4]  [K:F] [K:clef=bass][M:2/1]z8 | 
[V:1] G8 | 
[V:2] z8 | 
[V:3] c3de4 | 
[V:4] z8 | 
[V:1] F8- | 
[V:2] z8 | 
[V:3] d4A2d2- | 
[V:4] z8 | 
[V:1] F8 | 
[V:2] z8 | 
[V:3] dcB2A4 | 
[V:4] z8 | 
[V:1] G8- | 
[V:2] z8 | 
[V:3] G4z4 | 
[V:4] z4G,4- | 
[V:1] G8 | 
[V:2] z8 | 
[V:3] z8 | 
[V:4] G,2A,B,C4 | 
[V:1] D8 | 
[V:2] z8 | 
[V:3] z8 | 
[V:4] B,4G,4- | 
[V:1] z8 | 
[V:2] g8 | 
[V:3] z8 | 
[V:4] G,2E,4C,2 | 
[V:1] z8 | 
[V:2] g8 | 
[V:3] z8 | 
[V:4] C,2E,3F,G,2 | 
[V:1] z8 | 
[V:2] f8- | 
[V:3] z8 | 
[V:4] D,2A,3G,B,2- | 
[V:1] z8 | 
[V:2] f8 | 
[V:3] z8 | 
[V:4] B,2A,G,A,4 | 
[V:1] z8 | 
[V:2] g8- | 
[V:3] d4G4- | 
[V:4] G,4z2E,2- | 
[V:1] z8 | 
[V:2] g8 | 
[V:3] G2A2B4- | 
[V:4] E,2F,2G,4- | 
[V:1] z8 | 
[V:2] d8 | 
[V:3] B2AGA2d2- | 
[V:4] G,2F,2D,4 | 
[V:1] G8 | 
[V:2] z4G4 | 
[V:3] d2^c2^c2=B2 | 
[V:4] E,8 | 
[V:1] A8- | 
[V:2] F3GA2B2 | 
[V:3] d8 | 
[V:4] D,6C,B,, | 
[V:1] A4G4 | 
[V:2] c3de4 | 
[V:3] z4c4 | 
[V:4] A,,3B,,C,4 | 
[V:1] F8 | 
[V:2] d6ef | 
[V:3] A2B4A2 | 
[V:4] D,8 | 
[V:1] E8 | 
[V:2] gfed^c3=B | 
[V:3] c4z4 | 
[V:4] C,4A,,4 | 
[V:1] D8 | 
[V:2] d8 | 
[V:3] F4G2B2- | 
[V:4] B,,4z2G,,2- | 
[V:1] z8 | 
[V:2] z8 | 
[V:3] Bcd2G2c2- | 
[V:4] G,,A,,B,,2C,3B,, | 
[V:1] z8 | 
[V:2] z8 | 
[V:3] cBAGB2A2- | 
[V:4] A,,G,,D,4C,2 | 
[V:1] z8 | 
[V:2] z8 | 
[V:3] AGG4^F2 | 
[V:4] D,2B,,2A,,4 | 
[V:1] G8 | 
[V:2] d8 | 
[V:3] G8 | 
[V:4] G,,8 | 
[V:1] G4A3B | 
[V:2] e4f4 | 
[V:3] z8 | 
[V:4] z8 | 
[V:1] c2B4AB | 
[V:2] e2dcd4 | 
[V:3] z8 | 
[V:4] z8 | 
[V:1] c8 | 
[V:2] z2c3BA2 | 
[V:3] z8 | 
[V:4] z8 | 
[V:1] B4G2A2- | 
[V:2] G3AB2c2 | 
[V:3] z8 | 
[V:4] z8 | 
[V:1] AGFED2E2 | 
[V:2] d3cBAG2- | 
[V:3] z8 | 
[V:4] z8 | 
[V:1] D2G4^F2 | 
[V:2] G2B2A4 | 
[V:3] z8 | 
[V:4] z8 | 
[V:1] G8 | 
[V:2] G8 | 
[V:3] d4d4 | 
[V:4] z4G,4 | 
[V:1] z8 | 
[V:2] z8 | 
[V:3] G8 | 
[V:4] G,4C,4 | 
[V:1] z8 | 
[V:2] z8 | 
[V:3] d4d2d2- | 
[V:4] B,,2D,3E,F,2 | 
[V:1] z8 | 
[V:2] z8 | 
[V:3] d2d2c4- | 
[V:4] G,2G,2A,3G, | 
[V:1] z8 | 
[V:2] z8 | 
[V:3] c4B4 | 
[V:4] F,2E,2G,4- | 
[V:1] z8 | 
[V:2] z8 | 
[V:3] A8 | 
[V:4] G,2^F,E,F,4 | 
[V:1] z8 | 
[V:2] z4g4- | 
[V:3] G8 | 
[V:4] G,4z4 | 
[V:1] G8 | 
[V:2] g2fed2e2 | 
[V:3] z8 | 
[V:4] G,4G,F,E,D, | 
[V:1] G6FE | 
[V:2] d4d4 | 
[V:3] G8- | 
[V:4] G,6B,2- | 
[V:1] D2E2D2G2- | 
[V:2] g6e2- | 
[V:3] G8 | 
[V:4] B,A,G,4C,2 | 
[V:1] G2FED4 | 
[V:2] e2dcB3A | 
[V:3] G8 | 
[V:4] E,2F,2G,4 | 
[V:1] z2C3B,A,G, | 
[V:2] c4A2c2- | 
[V:3] c8- | 
[V:4] A,2A,3G,F,E, | 
[V:1] A,4G,3A, | 
[V:2] cBAGB2G2- | 
[V:3] c4B4- | 
[V:4] F,4G,4 | 
[V:1] B,CD3EFG | 
[V:2] GABcd3e | 
[V:3] B4B4 | 
[V:4] z4G,4 | 
[V:1] A3Bc4 | 
[V:2] fga2f3e | 
[V:3] A8 | 
[V:4] C4(3C2B,2C2 | 
[V:1] B6AG | 
[V:2] g4z4 | 
[V:3] G8 | 
[V:4] D8 | 
[V:1] B4A2c2- | 
[V:2] d4f3e | 
[V:3] z8 | 
[V:4] G,4F,3G, | 
[V:1] cBA4G2 | 
[V:2] c2d2B4 | 
[V:3] z8 | 
[V:4] A,2D,2G,4 | 
[V:1] A8 | 
[V:2] A8 | 
[V:3] d8- | 
[V:4] D,8- | 
[V:1] z4A4 | 
[V:2] a4f4 | 
[V:3] d8 | 
[V:4] D,8 | 
[V:1] B3cB2AG | 
[V:2] g2d2g2fg | 
[V:3] G8 | 
[V:4] z8 | 
[V:1] F3GA2D2- | 
[V:2] a4d3e | 
[V:3] d8 | 
[V:4] z2D,3E,F,2 | 
[V:1] DEF2B,3C | 
[V:2] f2B3cd2 | 
[V:3] d4d4- | 
[V:4] B,,3C,D,2G,,2 | 
[V:1] D2G,2A,4 | 
[V:2] G2g4^f2 | 
[V:3] d4c4 | 
[V:4] G,4z4 | 
[V:1] G,2G3FG2 | 
[V:2] g4z4 | 
[V:3] B8 | 
[V:4] G,8 | 
[V:1] AG^FEF4 | 
[V:2] z8 | 
[V:3] A8 | 
[V:4] D,8 | 
[V:1] G8 | 
[V:2] z8 | 
[V:3] G4z4 | 
[V:4] E,6C,2 | 
[V:1] z4E4- | 
[V:2] g8 | 
[V:3] c4c4- | 
[V:4] C,8 | 
[V:1] E2DCD2E2 | 
[V:2] g4g4- | 
[V:3] c2BAB2c2- | 
[V:4] z8 | 
[V:1] D4CDEF | 
[V:2] g4g4- | 
[V:3] c2=B2c3d | 
[V:4] z8 | 
[V:1] G4A4 | 
[V:2] g4f4- | 
[V:3] e4d4- | 
[V:4] z8 | 
[V:1] A2B4A2 | 
[V:2] f4f4 | 
[V:3] d4d4 | 
[V:4] z8 | 
[V:1] c8 | 
[V:2] g8 | 
[V:3] c4c4 | 
[V:4] z8 | 
[V:1] z4B4- | 
[V:2] d8 | 
[V:3] B4B2d2- | 
[V:4] G,8 | 
[V:1] B2G2A4- | 
[V:2] B4c4 | 
[V:3] dcB2A2c2- | 
[V:4] G,4F,4- | 
[V:1] A4A4 | 
[V:2] A3Bc4 | 
[V:3] cBAGA4 | 
[V:4] F,4F,4 | 
[V:1] D4G4- | 
[V:2] B4G4 | 
[V:3] G4B4 | 
[V:4] G,8 | 
[V:1] G2^FEF4 | 
[V:2] A8 | 
[V:3] z4A4 | 
[V:4] D,8 | 
[V:1] G4z4 | 
[V:2] G8 | 
[V:3] B4B2G2- | 
[V:4] G,,3A,,B,,2C,2- | 
[V:1] G8 | 
[V:2] z4G4 | 
[V:3] GFG2C4 | 
[V:4] C,D,E,4D,C, | 
[V:1] G4F4- | 
[V:2] c2Bcd4- | 
[V:3] G4A4 | 
[V:4] E,4D,3C, | 
[V:1] F4F4 | 
[V:2] d2B4A2 | 
[V:3] z8 | 
[V:4] D,4D,4 | 
[V:1] G8 | 
[V:2] c4c4 | 
[V:3] G8- | 
[V:4] C,8 | 
[V:1] G4D4 | 
[V:2] d4B4 | 
[V:3] G8 | 
[V:4] z8 | 
[V:1] z4C4- | 
[V:2] c4z4 | 
[V:3] A8- | 
[V:4] A,,4A,,4- | 
[V:1] C2D2E2DE | 
[V:2] z4c4 | 
[V:3] A4G4 | 
[V:4] A,,2B,,2C,4 | 
[V:1] F4D4- | 
[V:2] A4B4 | 
[V:3] F4G4 | 
[V:4] D,4G,,4 | 
[V:1] D2^C=B,C4 | 
[V:2] G8 | 
[V:3] E8 | 
[V:4] A,,8 | 
[V:1] D8- | 
[V:2] F6G2 | 
[V:3] D8- | 
[V:4] B,,6G,,2 | 
[V:1] D8 ||  
[V:2] G8 ||  
[V:3] D8 ||  
[V:4] G,,8 ||  
[V:1]  [K:F] [K:clef=treble][M:3/1]G12 | 
[V:2]  [K:F] [K:clef=treble-8][M:3/1]z12 | 
[V:3]  [K:F] [K:clef=treble-8][M:3/1]D4D4G4- | 
[V:4]  [K:F] [K:clef=bass][M:3/1]G,,8G,,4 | 
[V:1] E6F2G4 | 
[V:2] G8G4 | 
[V:3] G2F2E4D4 | 
[V:4] C,8B,,4 | 
[V:1] A6c3BAG | 
[V:2] c12 | 
[V:3] E6F4E2 | 
[V:4] A,,4A,,8 | 
[V:1] B2G4^F2F2EF | 
[V:2] B4A8 | 
[V:3] G4c6Bc | 
[V:4] G,,4z4z4 | 
[V:1] G8z4 | 
[V:2] G12 | 
[V:3] d4z2G4A2 | 
[V:4] z12 | 
[V:1] D4E4F4 | 
[V:2] z12 | 
[V:3] B4c4A4 | 
[V:4] z4z4D,4 | 
[V:1] G4F2D3CB,2 | 
[V:2] z12 | 
[V:3] G4A4B4 | 
[V:4] E,4F,4G,4 | 
[V:1] A,4B,4z4 | 
[V:2] z12 | 
[V:3] c2d4G2A2F2- | 
[V:4] F,2D,3C,B,,2A,,4 | 
[V:1] D4E4F4 | 
[V:2] z12 | 
[V:3] F2G4A4F2- | 
[V:4] B,,4C,4D,4 | 
[V:1] D6^C2C2=B,C | 
[V:2] z12 | 
[V:3] FED2E3FE4 | 
[V:4] B,,4A,,8 | 
[V:1] D4z4z4 | 
[V:2] z12 | 
[V:3] D12 | 
[V:4] A,4A,4A,4 | 
[V:1] D4D4D4 | 
[V:2] z12 | 
[V:3] z12 | 
[V:4] D,8G,,4 | 
[V:1] G,12 | 
[V:2] d4d4d4 | 
[V:3] z12 | 
[V:4] G,,12 | 
[V:1] B,6G,2B,3C | 
[V:2] G12 | 
[V:3] d4d4d4 | 
[V:4] z4z4G,,4- | 
[V:1] D6F3GA2 | 
[V:2] z4d4d4 | 
[V:3] G2D2F3GA4 | 
[V:4] G,,2B,,3C,D,3E,F,2 | 
[V:1] B4c3BA2G2 | 
[V:2] d4c8 | 
[V:3] G4z2c3d_e2 | 
[V:4] G,4A,2F,4_E,2 | 
[V:1] G6^FEF4 | 
[V:2] B4A8 | 
[V:3] d6cBA4 | 
[V:4] G,4D,8 | 
[V:1] [M:2/1]G8- | 
[V:2] [M:2/1]G8 | 
[V:3] [M:2/1]B8 | 
[V:4] [M:2/1]G,,8 | 
[V:1] G8 | 
[V:2] z4g4 | 
[V:3] G2c3Bc2 | 
[V:4] C,4E,4 | 
[V:1] z8 | 
[V:2] f2d4e2 | 
[V:3] d4B3c | 
[V:4] D,4G,3F, | 
[V:1] z8 | 
[V:2] f3edce2- | 
[V:3] d2A3Bc2- | 
[V:4] D,2F,3E,C,2- | 
[V:1] C4D4 | 
[V:2] edc4=B2 | 
[V:3] cBG4F2 | 
[V:4] C,2E,2D,4 | 
[V:1] E4D2F2- | 
[V:2] c3d/e/fedc | 
[V:3] G2c2B2d2- | 
[V:4] C,4z4 | 
[V:1] FEDCE4 | 
[V:2] d4c4 | 
[V:3] dcBAG2c2- | 
[V:4] B,,3A,,C,4 | 
[V:1] D8 | 
[V:2] z8 | 
[V:3] c2=B2=B2A2 | 
[V:4] G,,4G,,4 | 
[V:1] C3DE2D2- | 
[V:2] e4c2g2- | 
[V:3] c3BG4- | 
[V:4] A,,3B,,C,2G,,2 | 
[V:1] D2C2B,2A,G, | 
[V:2] gfecd3e | 
[V:3] G2A2G2FE | 
[V:4] B,,2C,2G,,4 | 
[V:1] A,8 | 
[V:2] d8 | 
[V:3] F8- | 
[V:4] D,8- | 
[V:1] z4A4 | 
[V:2] z4d4- | 
[V:3] F8 | 
[V:4] D,8 | 
[V:1] B4c4 | 
[V:2] d2e2f4 | 
[V:3] z4A4 | 
[V:4] G,4F,4 | 
[V:1] B2A3GF2 | 
[V:2] d2f3ed2 | 
[V:3] B2c2d4 | 
[V:4] G,2F,2D,4 | 
[V:1] E4A4- | 
[V:2] e4f4 | 
[V:3] c4A4 | 
[V:4] A,4F,4 | 
[V:1] A2GFG4 | 
[V:2] d8 | 
[V:3] B8 | 
[V:4] G,8 | 
[V:1] A8 | 
[V:2] f6a2- | 
[V:3] A8- | 
[V:4] D,8- | 
[V:1] z4A4 | 
[V:2] ag^fe^f4 | 
[V:3] A8 | 
[V:4] D,8 | 
[V:1] B3cB2AG | 
[V:2] g2G2B2c2 | 
[V:3] G6FE | 
[V:4] G,,6A,,2 | 
[V:1] F4G2A2- | 
[V:2] d4e2f2- | 
[V:3] D4z4 | 
[V:4] B,,4G,,2F,,2- | 
[V:1] AGF2E4 | 
[V:2] fed4^c2 | 
[V:3] z4z2A2 | 
[V:4] F,,2G,,2A,,4 | 
[V:1] z2D3EF2 | 
[V:2] d4z4 | 
[V:3] F2G2A4 | 
[V:4] B,,2G,,2D,4 | 
[V:1] G3AB2c2- | 
[V:2] z4d2c2- | 
[V:3] G4z2F2- | 
[V:4] E,3F,G,2A,2- | 
[V:1] cBAGB2A2- | 
[V:2] c4B2f2- | 
[V:3] FGA2G2d2- | 
[V:4] A,G,F,E,G,2D,2 | 
[V:1] AGG4^F2 | 
[V:2] fed3cA2 | 
[V:3] dcB2A4 | 
[V:4] F,2G,2D,4 | 
[V:1] G8- | 
[V:2] B2G2B3c | 
[V:3] G8- | 
[V:4] G,,8- | 
[V:1] G8 |]  
[V:2] d8 |]  
[V:3] G8 |]  
[V:4] G,,8 |]  



